X:1
T:Title
%%score 1 2
L:1/8
Q:1/4=80
M:2/4
K:D
V:1 treble nm="Grand Piano, Soprano"
V:2 bass nm="Choir Pad, Hermosa, George F. Root"
V:1
 [FA][=F^G]/[^FA]/ [=GB][FA] | [FA] .[DF]3 | [DF][D=F]/[D^F]/ [FA][DF] | .[CE]4 | %4
w: By~George~Frederick~Root,~1881 * * * *||||
 [CA][B,^G]/[CA]/ [DB][CA]/[DB]/ | [Ec] .[EA]3 | [B,E][=C^D]/[^CE]/ [=DF][D^G] | .[CA]4 | %8
w: ||||
 [Gc][GB]/[FA]/ [EG][CE] | [DF] .[FA]3 | [GB]G/[GB]/ [Gd][GB] | .[FA]4 | [Ad][Ac]/[Ad]/ [Ae][Ad] | %13
w: |||||
 [Gd] .[GB]3 | [FA][=F^G]/[^FA]/ [=GB][Gc] | [Fd]4- | [Fd]2 z2 |] %17
w: ||||
V:2
 [D,D][D,D]/[D,D]/ [D,D][D,D] | [D,D] .[D,A,]3 | [D,A,][D,^G,]/[D,A,]/ [D,D][D,A,] | .[A,,A,]4 | %4
 E,E,/E,/ E,E, | [A,,A,] .[C,A,]3 | [E,A,][E,A,]/[E,A,]/ [E,^G,][E,B,] | .[A,,A,]4 | %8
 [A,E][A,E]/[A,E]/ [A,C]A, | [D,A,] .[D,D]3 | [G,D][G,B,]/[G,B,]/ [G,B,][G,D] | .[D,D]4 | %12
 [F,A,][F,A,]/[F,A,]/ [F,A,][F,A,] | [G,B,] .[G,D]3 | [A,D][A,D]/[A,D]/ [A,C][A,E] | [D,D]4- | %16
 [D,D]2 z2 |] %17

